Adwaita++-Dark/actions/16/format-text-italic.svg

<svg height="16" width="16" xmlns="http://www.w3.org/2000/svg">
  <path d="m5.9544 3-.7817 2h6.0003c.43 0 .761.61.609 1l-.391 1h-5.0001c-.92 0-1.8885.38-2.6292.97-.7367.58-1.262 1.31-1.5435 2.03-.2814.72-.2968 1.45-.0135 2.03s.9309.97 1.8409.97h7.0004l2.736-7c.637-1.63-.148-3-1.828-3zm-.3453 6h4.9999l-.7817 2h-5c-.4 0-.527-.11-.6105-.28-.0836-.17-.108-.44.0014-.72.1095-.28.315-.55.5315-.72.2125-.16.4394-.28.8594-.28z" fill="#e6ddff"/>
</svg>

<svg xmlns="http://www.w3.org/2000/svg" width="16" height="16" version="1.1">
 <path style="fill:#E6DDFF" d="M 5.9544,3 5.1727,5 H 11.173 C 11.603,5 11.934,5.61 11.782,6 L 11.391,7 H 6.3909 C 5.4709,7 4.5024,7.38 3.7617,7.97 3.025,8.55 2.4997,9.28 2.2182,10 1.9368,10.72 1.9214,11.45 2.2047,12.03 2.488,12.61 3.1356,13 4.0456,13 H 11.046 L 13.782,6 C 14.419,4.37 13.634,3 11.954,3 Z M 5.6091,9 H 10.609 L 9.8273,11 H 4.8273 C 4.4273,11 4.3003,10.89 4.2168,10.72 4.1332,10.55 4.1088,10.28 4.2182,10 4.3277,9.72 4.5332,9.45 4.7497,9.28 4.9622,9.12 5.1891,9 5.6091,9 Z"/>
</svg>
